X:46
T:Daisy Fields (reel), The 
B:CRE1.171 (Pairc na Noinini)
F:file ID: cre.1/046daisy
Q:180
L:1/8
M:4/4
R:reel
K:D
F3E DEFD|EA,~A,2 EA,~A,2|F3E DEFA|(3Bcd ec dcBA|
F3E DEFD|EA,~A,2 EA,~A,2|F3E DEFA|(3Bcd ec d2||
Ad|fddc dfaf|edcd efge|fddc dfaf|gbeg fddA|
fddc dfaf|edcd efge|dfaf gbag|(3fga ec dcBA|]

%%%

